X:1
T:Die bittere Leidenszeit beginnt abermal BWV 450
T:BWV 450
T:The Bitter Time Of Suffering Begins Again 
T:Johann Sebastian Bach (1685-1750)
T:"Die bittre Leidenszeit beginnet abermal" transposed for Flute and Cello (BWV 450) 
T:twoflutes 2020 / Felix Scharpf
C:Johann Sebastian Bach (1685-1750)
Z:twoflutes 2020 / Felix Scharpf
%%score [ 1 2 ]
L:1/8
Q:1/4=60
M:3/4
K:F
V:1 treble nm="Flöte"
V:2 bass nm="Violoncello"
V:1
!mp! d2 (BA) B2 | (A3 G) !fermata!F2 | A2 d2 e2 | ^c3 =B !fermata!A2 | e2 (ef)(ge) | f3 e d2 | %6
 d2 (de)(fd) | e3 d !fermata!c2 | A2 =B2 ^c2 | d2 (d^c)(de) | f3 (e de) | (c=B) B3 A | %12
 !fermata!A6 :| c2 (GA) B2 | (AG) F2 A2 | d3 (^c de) | !fermata!^c6 | e2 e2 (fd) | e2 e2 A2 | %19
 A2 =B2 ^c2 | !fermata!d4 f2 | (f3 g/a/) (gf) | (ed) e2 f2 | (d^c) d2 e2 | ^c4 A2 | d3 (c BA) | %26
 B2 !fermata!B2 z2 |!>(! A2 (GF)(GE) | F6 | (BG) F2 (ED)!>)! |!p! !fermata!D6 |] %31
V:2
!mp! D,2 (G,F,)(E,D,) | ^C,2 A,,2 !fermata!D,2 | C,2 B,,2 (A,,G,,) | A,,2 E,2 !fermata!A,2 | %4
 (A,=B,) ^C2 A,2 | D2 D,4 | (G,A,) =B,2 G,2 | C2 !fermata!C,4 | (F,E,)(F,G,)(F,E,) | D,2 B,2 G,2 | %10
 D2 ^G,4 | A,2 E,2 E,,2 | !fermata!A,,6 :| E,4 (D,C,) | F,3 (E, D,C,) | B,,2 A,,2 ^G,,2 | %16
 !fermata!A,,6 | (A,=B,)(^CA,) D2 | A,2 (G,F,)(G,E,) | F,4 E,2 | !fermata!D,4 D,2 | D2 A,2 B,2 | %22
 C2 G,2 A,2 | B,2 F,2 G,2 | A,3 (B, A,G,) | ^F,2 A,2 D,2 | !fermata!G,3 (F, E,D,) |!>(! ^C,4 A,,2 | %28
 (D,A,DCB,A,) | G,2 A,2 A,,2!>)! |!p! !fermata!D,6 |] %31

